X:1
T:shortbilayer4.output
L:1/16
K:C
_E_e^cf ^cD,D,D,  |  D,D,D,D, D,D,D,D,  |  D,D,D,D, D,D,D,D,  |  D,D,D,D, D,D,D,D,  |  D,D,D,D, D,D,D,D,  |  D,D,D,D, D,D,D,D,  |  D,D,D,D, D,D,D,D,  |  D,D,D,D, D,D,D,D,  |  D,D,D,D, D,D,D,D,  |  D,D,D,D, D,D,D,D,  |  D,D,D,^c ^c^c^c^c  |  ^c^c^c^c ^c^c^c^c  |  ^c^c^c^c ^c^c^c^c  |  ^c^c^c^c ^c^c^c^c  |  ^c^c^c^c ^c^c^c^c  |  ^c^c^c^c ^c^c^c^c  |  ^c^c^c^c ^c^c^c^c  |  ^c^c^c^c ^c^c^c^c  |  ^c^c^c^c ^c^c^c^c  |  ^c^c^c^c ^c^c^c^c  |  ^c^c^c^c ^c^c^c^c  |  ^c^c^c^c ^c^c^c^c  |  ^c^c^c^c ^c^c^c^c  |  ^c^c^c^c ^c^c^c^c  |  ^c^c^c^c ^c^c^c^c  |  ^c^c^c^c ^c^c^c^c  |  ^c^c^c^c ^c^c^c^c  |  ^c^c^c^c ^c^c^c^c  |  ^c^c^c^c ^c^c^c^c  |  ^c^c^c^c ^c^c^c^c  |  ^c^c^c^c ^c^c^c^c  |  ^c^c^c^c ^c^c^c^c  |  ^c^c^c^c ^c^c^c^c  |  ^c^c^c^c ^c^c^c^c  |  ^c^c^c^c ^c^c^c^c  |  ^c^c^c^c ^c^c^c^c  |  ^c^c^c^c ^c^c^c^c  |  ^c^c^c^c ^c^c^c^c  |  ^c^c^c^c ^c^c^c^c  |  ^c^c^c^c ^c^c^c^c  |  ^c^c^c^c ^c^c^c^c  |  ^c^c^c^c ^c^c^c^c  |  ^c^c^c^c ^c^c^c^c  |  ^c^c^c^c ^c^c^c^c  |  ^c^c^c^c ^c^c^c^c  |  ^c^c^c^c ^c^c^c^c  |  ^c^c^c^c ^c^c^c^c  |  ^c^c^c^c ^c^c^c^c  |  ^c^c^c^c ^c^c^c^c  |  ^c^c^c^c ^c^c^c^c  |  ^c^c^c^c ^c^c^c^c  |  ^c^c^c^c ^c^c^c^c  |  ^c^c^c^c ^c^c^c^c  |  ^c^c^c^c ^c^c^c^c  |  ^c^c^c^c ^c^c^c^c  |  ^c^c^c^c ^c^c^c^c  |  ^c^c^c^c ^c^c^c^c  |  ^c^c^c^c ^c^c^c^c  |  ^c^c^c^c ^c^c^c^c  |  ^c^c^c^c ^c^c^c^c  |  ^c^c^c^c ^c^c^c^c  |  ^c^c^c^c ^c^c^c^c  |  ^c^c^c^c ^c^c^c^c  |  ^c^c^c^c ^c^c^c^c  |  ^c^c^c^c ^c^c^c^c  |  ^c^c^c^c ^c^c^c^c  |  ^c^c^c^c ^c^c^c^c  |  ^c^c^c^c ^c^c^c^c  |  ^c^c^c^c ^c^c^c^c  |  ^c^c^c^c ^c^c^c^c  |  ^c^c^c^c ^c^c^c^c  |  ^c^c^c^c ^c^c^c^c  |  ^c^c^c^c ^c^c^c^c  |  ^c^c^c^c ^c^c^c^c  |  ^c^c^c^c ^c^c^c^c  |  ^c^c^c^c ^c^c^c^c  |  ^c^c^c^c ^c^c^c^c  |  ^c^c^c^c ^c^c^c^c  |  ^c^c^c^c ^c^c^c^c  |  ^c^c^c^c ^c^c^c^c  |  ^c^c^c^c ^c^c^c^c  |  ^c^c^c^c ^c^c^c^c  |  ^c^c^c^c ^c^c^c^c  |  ^c^c^c^c ^c^c^c^c  |  ^c^c^c^c ^c^c^c^c  |  ^c^c^c^c ^c^c^c^c  |  ^c^c^c^c ^c^c^c^c  |  ^c^c^c^c ^c^c^c^c  |  ^c^c^c^c ^c^c^c^c  |  ^c^c^c^c ^c^c^c^c  |  ^c^c^c^c ^c^c^c^c  |  ^c^c^c^c ^c^c^c^c  |  ^c^c^c^c ^c^c^c^c  |  ^c^c^c^c ^c^c^c^c  |  ^c^c^c^c ^c^c^c^c  |  ^c^c^c^c ^c^c^c^c  |  ^c^c^c^c ^c^c^c^c  |  ^c^c^c^c ^c^c^c^c  |  ^c^c^c^c ^c^c^c^c  |  ^c^c^c^c ^c^c^c^c  |  ^c^c^c^c ^c^c^c^c  |  ^c^c^c^c ^c^c^c^c  |  ^c^c^c^c ^c^c^c^c  |  ^c^c^c^c ^c^c^c^c  |  ^c^c^c^c ^c^c^c^c  |  ^c^c^c^c ^c^c^c^c  |  ^c^c^c^c ^c^c^c^c  |  ^c^c^c^c ^c^c^c^c  |  ^c^c^c^c ^c^c^c^c  |  ^c^c^c^c ^c^c^c^c  |  ^c^c^c^c ^c^c^c^c  |  ^c^c^c^c ^c^c^c^c  |  ^c^c^c^c ^c^c^c^c  |  ^c^c^c^c ^c^c^c^c  |  ^c^c^c^c ^c^c^c^c  |  ^c^c^c^c ^c^c^c^c  |  ^c^c^c^c ^c^c^c^c  |  ^c^c^c^c ^c^c^c^c  |  ^c^c^c^c ^c^c^c^c  |  ^c^c^c^c ^c^c^c^c  |  ^c^c^c^c ^c^c^c^c  |  ^c^c^c^c ^c^c^c^c  |  ^c^c^c^c ^c^c^c^c  |  ^c^c^c^c ^c^c^c^c  |  ^c^c^c^c ^c^c^c^c  |    ]
